X:171
T:Newcastle Hornpipe TS.171
T:Kirkgate Hornpipe,aka TS.171
M:C|
L:1/8
Q:1/2=90
S:Thomas Sands’ MS,1810,Lincolnshire
R:.hornpipe
N:Also in Gibbons and several other collections
O:England;Lincolnshire
Z:vmp.Ruairidh Greig, 2011
K:G
(gd)|B2B2BcAB|G2G2GABc|dcdB edcB|BAcA GFED|
B2B2Bdce|d2d2d2cB|AdcB AGFE|D2D2D2:|
|:AB|c2c2c2 AB|cBAG GFED|d2d2d2(ef)|gfed cBAG|
e2e2efge|dcBcd2g2|egec BGAF|G2G2G2:|]

